fs/cloud_checkmark_16_filled.svg

<svg viewBox="0 0 16 16" fill="none" xmlns="http://www.w3.org/2000/svg" height="1em" width="1em">
  <path d="M4.92552 3.37088C5.58306 2.56722 6.60015 2 8 2C8.85003 2 9.84106 2.28075 10.6291 2.92552C11.2682 3.44844 11.7578 4.19876 11.9315 5.18814C11.4751 5.06544 10.9952 5 10.5 5C7.46243 5 5 7.46243 5 10.5C5 10.8415 5.03112 11.1757 5.09069 11.5H4.5C3.14626 11.5 2.24239 11.0899 1.68621 10.4543C1.14196 9.83225 1 9.07262 1 8.5C1 7.3222 1.96544 5.73497 4.02844 5.5236C4.11434 4.79571 4.39818 4.01541 4.92552 3.37088ZM15 10.5C15 12.9853 12.9853 15 10.5 15C8.01472 15 6 12.9853 6 10.5C6 8.01472 8.01472 6 10.5 6C12.9853 6 15 8.01472 15 10.5ZM12.8536 8.64645C12.6583 8.45118 12.3417 8.45118 12.1464 8.64645L9.5 11.2929L8.85355 10.6464C8.65829 10.4512 8.34171 10.4512 8.14645 10.6464C7.95118 10.8417 7.95118 11.1583 8.14645 11.3536L9.14645 12.3536C9.34171 12.5488 9.65829 12.5488 9.85355 12.3536L12.8536 9.35355C13.0488 9.15829 13.0488 8.84171 12.8536 8.64645Z" fill="#212121"/>
</svg>

<svg viewBox="0 0 16 16" fill="none" xmlns="http://www.w3.org/2000/svg" height="1em" width="1em">
  <path d="M4.926 3.37C5.583 2.568 6.6 2 8 2c.85 0 1.841.28 2.63.926.638.522 1.128 1.273 1.301 2.262a5.5 5.5 0 0 0-6.84 6.312H4.5c-1.354 0-2.258-.41-2.814-1.046C1.142 9.832 1 9.073 1 8.5c0-1.178.965-2.765 3.028-2.976a4.2 4.2 0 0 1 .898-2.153ZM15 10.5a4.5 4.5 0 1 1-9 0 4.5 4.5 0 0 1 9 0Zm-2.146-1.854a.5.5 0 0 0-.708 0L9.5 11.293l-.646-.647a.5.5 0 0 0-.708.708l1 1a.5.5 0 0 0 .708 0l3-3a.5.5 0 0 0 0-.708Z" fill="#212121"/>
</svg>
